icons/bug-16.svg

<svg width="16" height="16" viewBox="0 0 16 16" fill="none" xmlns="http://www.w3.org/2000/svg">
<g clip-path="url(#clip0)">
<path fill-rule="evenodd" clip-rule="evenodd" d="M4.71967 0.21967C5.01256 -0.0732233 5.48744 -0.0732233 5.78033 0.21967L6.77939 1.21873C7.15943 1.07729 7.57069 1 8 1C8.42931 1 8.84057 1.07729 9.22061 1.21873L10.2197 0.21967C10.5126 -0.0732233 10.9874 -0.0732233 11.2803 0.21967C11.5732 0.512563 11.5732 0.987437 11.2803 1.28033L10.505 2.05564C11.1207 2.68646 11.5 3.54893 11.5 4.5V4.82692C11.5 4.92663 11.4913 5.0243 11.4746 5.11921C11.8832 5.25812 12.239 5.51128 12.504 5.84062L14.4715 5.05364C14.856 4.89981 15.2925 5.08687 15.4464 5.47146C15.6002 5.85604 15.4131 6.29252 15.0285 6.44636L13 7.25778V9H14.75C15.1642 9 15.5 9.33579 15.5 9.75C15.5 10.1642 15.1642 10.5 14.75 10.5H13V11C13 11.4085 12.951 11.8056 12.8586 12.1857L15.0285 13.0536C15.4131 13.2075 15.6002 13.644 15.4464 14.0285C15.2925 14.4131 14.856 14.6002 14.4715 14.4464L12.288 13.573C11.4136 15.0271 9.82041 16 8 16C6.17959 16 4.58639 15.0271 3.71196 13.573L1.52854 14.4464C1.14396 14.6002 0.707478 14.4131 0.553643 14.0285C0.399807 13.644 0.586869 13.2075 0.971457 13.0536L3.14142 12.1857C3.04899 11.8056 3 11.4085 3 11V10.5H0.75C0.335786 10.5 0 10.1642 0 9.75C0 9.33579 0.335786 9 0.75 9H3V7.25777L0.971457 6.44636C0.586869 6.29252 0.399807 5.85604 0.553643 5.47146C0.707478 5.08687 1.14396 4.89981 1.52854 5.05364L3.496 5.84062C3.76098 5.51128 4.11681 5.25812 4.52544 5.11921C4.50872 5.0243 4.5 4.92663 4.5 4.82692V4.5C4.5 3.54893 4.87934 2.68646 5.49498 2.05564L4.71967 1.28033C4.42678 0.987437 4.42678 0.512563 4.71967 0.21967ZM6.17308 5L9.82692 5C9.92251 5 10 4.92251 10 4.82692V4.5C10 3.39543 9.10457 2.5 8 2.5C6.89543 2.5 6 3.39543 6 4.5V4.82692C6 4.92251 6.07749 5 6.17308 5ZM5.25 6.5C4.83579 6.5 4.5 6.83579 4.5 7.25V11C4.5 12.933 6.067 14.5 8 14.5C9.933 14.5 11.5 12.933 11.5 11V7.25C11.5 6.83579 11.1642 6.5 10.75 6.5H5.25Z" fill="black"/>
</g>
<defs>
<clipPath id="clip0">
<rect width="15.5002" height="16" fill="white"/>
</clipPath>
</defs>
</svg>

<svg xmlns="http://www.w3.org/2000/svg" width="16" height="16" viewBox="0 0 16 16"><path fill-rule="evenodd" d="M4.72.22a.75.75 0 011.06 0l1 .999a3.492 3.492 0 012.441 0l.999-1a.75.75 0 111.06 1.061l-.775.776c.616.63.995 1.493.995 2.444v.327c0 .1-.009.197-.025.292.408.14.764.392 1.029.722l1.968-.787a.75.75 0 01.556 1.392L13 7.258V9h1.75a.75.75 0 010 1.5H13v.5c0 .409-.049.806-.141 1.186l2.17.868a.75.75 0 01-.557 1.392l-2.184-.873A4.997 4.997 0 018 16a4.997 4.997 0 01-4.288-2.427l-2.183.873a.75.75 0 01-.558-1.392l2.17-.868A5.013 5.013 0 013 11v-.5H.75a.75.75 0 010-1.5H3V7.258L.971 6.446a.75.75 0 01.558-1.392l1.967.787c.265-.33.62-.583 1.03-.722a1.684 1.684 0 01-.026-.292V4.5c0-.951.38-1.814.995-2.444L4.72 1.28a.75.75 0 010-1.06zM6.173 5h3.654A.173.173 0 0010 4.827V4.5a2 2 0 10-4 0v.327c0 .096.077.173.173.173zM5.25 6.5a.75.75 0 00-.75.75V11a3.5 3.5 0 107 0V7.25a.75.75 0 00-.75-.75h-5.5z"/></svg>
